X:677
T: "Die Ammen - Uhr"
N: Z1358
O: Europa, Mitteleuropa, Deutschland, Rhein
R: Kinder - Lied
M: 6/8
L: 1/8
K: A
e | e2cc2A | BcBA2
e | e2cc2A | BcBA2
c | B2dd2B | Acee2
c | B2dd2B | AcBA2

@@@ Tune index: 10435
